X:1
T:Russian Dance [6]
M:2/4
L:1/8
B:John Hall – “A Selection of Strathspeys Reels, Waltzes & Irish Jigs” (c. 1818, p. 23)
B:  https://digital.nls.uk/special-collections-of-printed-music/archive/104981834
N:”Printed and sold by John Hall, at his Music Room.”
N:Hall (1788-1862) was a music teacher in Ayr, Scotland. His dancing master’s ‘kit’
N:(a small fiddle) used in his dancing lessons, is still preserved.
Z:AK/Fiddler’s Companion
K:D
[A/f/][A/f/][Af] [Af]a|[A/f/][A/f/][Af] [Af]a|Bdce|d/c/d/e/ dA|[A/f/][A/f/][Af] [Af]a|[A/f/][A/f/][Af] [Af]a|
Bdce|d2 Dz||"8va"[F2A2] [FA][FA]|[GA][FA][GA][FA]|[EA][EA] E/F/G/E/|
Fa Fa|[F2A2][FA][FA]|[GA][FA][GA][FA]|[EA][EA] E/F/G/E/|DD D2||

